X:1
T:Title
%%score 1 2 3
L:1/8
M:3/2
K:C
V:1 treble nm="Part_1"
V:2 treble-8 nm="Part_2"
V:3 treble-8 nm="Part_3"
V:1
 G4 G4 G4 | F6 G2 A4 | d8 c4 | B2 A4 G4 ^F2 | G8 G4 | F4 F4 F4 | A6 E2 E4 | G6 F2 D2 E2 | %8
 F6 G2 F2 E2 | C2 E4 D4 C2 | D8 z4 | A4 A4 A4 | B4 d6 c2 | B2 A4 G4 ^F2 | G8 z4 | G4 G4 F4 | %16
 G4 _B6 A2 | A2 c4 _B2 G2 A2 | _B6 c2 A2 B2 | c2 d4 B2 A2 GA | _B3 A F6 G2 | A12- | A12 | _B12 | %24
 A8 A4 | d4 B2 G4 G2- | G2 A6 F2 F2- | F2 E2 F2 G2 A2 _B2- | B4 A2 _B2 G2 A2 | %29
 _B3 A G2 ^F2 EF G2- | G12 |] %31
V:2
 G8 E4 | D6 E2 F4 | G4 B4 A4 | d4 c2 B2 A4 | G8 z4 | d8 A4- | A4 B8 | c6 d2 B2 c2 | d6 e2 d2 B2 | %9
 A4 G2 F2 E4 | D8 z4 | F12 | G8 B3 c | d4 c2 B2 A4 | G8 z4 | B4 B4 A4 | G8 G4 | F6 G2 E2 F2 | %18
 G6 A2 F2 G2 | A2 G4 _B2 c4 | d8 A2 _B2 | c12- | c8 z4 | G12 | F8 F4 | G8 B4 | B4 c6 A2 | %27
 A4 A2 _B2 c2 d2- | d4 c2 d2 _B2 c2 | d4 _B2 A4 G2- | G12 |] %31
V:3
 d4 d4 e4 | d4 A4 D4 | d8 A4 | G2 D2 F2 G2 D4 | d8 z4 | D12- | D4 G4 E4 | C4 z4 G2 E2 | %8
 D6 C2 D2 G2 | A2 c2 B2 A2 G4 | A8 z4 | D12 | d8 z4 | G2 D2 F2 G2 D4 | d12 | E4 F2 G2 D4 | d8 d4 | %17
 A6 d2 e2 A2 | d6 c4 _B2 | A2 _B4 G2 F4 | D2 G2 D4 z4 | F12- | F12 | d12 | D12 | B8 E4 | G4 F6 F2 | %27
 D4 z4 E2 G2 | G4 A2 G4 F2 | D4 G2 D4 d2- | d12 |] %31

